X:1
T:Why Not Say Yes Tonight?
T:Why Not Say Yes Tonight?
T:Louis D. Eichhorn
T:Effie Wells Loucks, 1901
T:Public Domain Courtesy of the Cyber Hymnal™
T:Public Domain Courtesy of the Cyber Hymnal™
C:Louis D. Eichhorn
Z:Public Domain
Z:Courtesy of the Cyber Hymnal™
%%score ( 1 2 ) ( 3 4 )
L:1/8
Q:1/4=95
M:6/8
K:Eb
V:1 treble 
V:2 treble 
V:3 bass 
V:4 bass 
V:1
 [B,B] | [B,B][C=A][D_A] [EG][FA][GB] | [=Ec][Cc][GB] [FA]2 [_E=A] | [DB][DF][=EG] [FA][Cc][DB] | %4
w: 1.~O|why not say Yes to the|Sav- ior to- night? He’s|ten- der- ly plead- ing with|
w: 2.~For|with you the Spir- it will|not al- ways plead— O|do not re- ject Him to-|
w: 3.~Take|Christ as your Sav- ior, then|all shall be well, The|mor- row let bring what it|
 [EG]3- [EG]2 [B,B] | [B,B][C=A][D_A] [EG][FA][GB] | [=Ec][Cc][GB] [FA]2 [Ac] | %7
w: thee * To|come to Him now with thy|sin bur- dened heart For|
w: night! * To-|mor- row may bring you the|dark- ness of death, Un-|
w: may; * His|love shall pro- tect you, His|Spir- it shall guide, And|
 [Ac][GB][_Ge] [Fd][=E=G][_Ec] | B6 ||"^Refrain" [GB][^F=A][GB] E2 [D=F] | [EG]6 | [Ac]3 [AB]3 | %12
w: par- don so full and so|free.|Why not say Yes to-|night?|Why not?|
w: brok- en by heav- en- ly|light.||||
w: safe- ly keep you in His|way.||||
 [Gc]3 [GB]3 | [EG][Ec][EG] [DA][DAd][Dc] | [EB][Ee][EG] [EF]3 | B2 [_DB] [CA]!fermata![=DG][DF] | %16
w: Why not?|While He so gent- ly, so|ten- der- ly pleads,|O ac- cept Him to-|
w: ||||
w: ||||
 E3- [B,E]2 |] %17
w: night! *|
w: |
w: |
V:2
 x | x6 | x6 | x6 | x6 | x6 | x6 | x6 | (DFG A3) || x3 E2 x | x6 | x6 | x6 | x6 | x6 | (ED) x4 | %16
 E C_C x2 |] %17
V:3
 z | B,,3 [E,B,]3 | [C,G,C]3 [F,C]2 z | [B,,F,B,]3 B,3 | [E,B,]3- [E,B,]2 z | B,,3 [E,B,]3 | %6
w: |~ ~|~ ~|~ ~|~ *|~ ~|
 [C,G,C]3 [F,C]2 z | [E,B,]3 [F,B,]2 [F,=A,] | [B,,F,B,]6 || [E,B,][E,C][E,B,] [G,B,]B,>B, | %10
w: ~ ~|~ ~ ~|~|Why not say Yes to the|
 [E,B,]G,C B,3 | D3 [B,D]3 | B,3 [E,E]3 | [E,B,][E,G,][E,C] [F,B,][B,,B,][A,B,] | %14
w: Sav- ior to- night?|Say Yes!|Say Yes!|~ ~ ~ ~ ~ ~|
 [G,B,][G,B,]B, [A,C]3 | [G,B,][F,A,][=E,G,] [F,A,]!fermata![B,,B,][B,,A,] | %16
w: ~ ~ ~ ~|~ ~ ~ ~ ~ ac-|
 G,A, F,/^F,/ [E,G,]2 |] %17
w: cept Him ~to- ~night! *|
V:4
 x | x6 | x6 | x6 | x6 | x6 | x6 | x6 | x6 || x4 B,>B, | x G,C B,3 | (B,,D,F,) x3 | (E,B,,E,) x3 | %13
 x6 | x2 B, x3 | x6 | E,3- x2 |] %17

